X: 7097
T: Christmas Carousing
R: reel
M: 4/4
K: Amixolydian
|:eA~A2 BGGB|A2fe dBBa|eA~A2 BGGB|A2fe d2da:|
fdfa fdfa|eAef dBBf|fdfa fdfa|eAef d2df|
fdfa fdfa|eAef dBBe|daaf edef|gage d2da||

